X:323
T:Hornpipe,A. RH.323
R:.hornpipe
S:Rev.R.Harrison’s MS,c1815,Cumbria
O:England
A:Temple Sowerby,Cumbria
Z:vmp.Simon Wilson. Review PJH, 2008.
M:4/4
L:1/8
Q:2/4=90
K:C
ed|cGEG cedc|B2d2 d2gf|ecBc acBc|B2G2 G2ed|!
cGEG FADF|EGce gec’g|afdB GBdf|e2c2 c2:|!
|:gf|egc’b agfe|f2d2 d2de|fdd2 ecc2|dcBA G2cB|!
AFcA GEcG|AFcA GEcG|ABcd efdB|d2c2 c2:|

